X:41
T: Constant Billy
F: http://www.vwml.org.uk/record/CJS2/10/2346
S: Morris dance as taught by W. Wells of Bamnpton at Stow. Aug 24-26 [1909]
S: CJS2-10-2346
N: Tune 2264 [http://www.vwml.org.uk/record/CJS2/10/2264]
Z:transcribed by Andy Turner, Dec 2014
M:6/8
L:1/8
K:G
"^Caper"
B>cd e>fg|A>Bc d>BG|B>cd e>fg|A>Bc d3| G2d B>GB|c2A A>GA|B>AG E>FG|D>EF G3||

